X:1
T:There’s a Place in the Kingdom for You
T:There’s a Place in the Kingdom for You
T:Green Harmon Riddle
T:Jennie Wilson, 1904
T:Public Domain Courtesy of the Cyber Hymnal™
T:Public Domain Courtesy of the Cyber Hymnal™
C:Green Harmon Riddle
Z:Public Domain
Z:Courtesy of the Cyber Hymnal™
%%score ( 1 2 ) ( 3 4 )
L:1/8
Q:1/4=95
M:4/4
K:Ab
V:1 treble 
V:2 treble 
V:3 bass 
V:4 bass 
V:1
 [CE][CA] | [Ec]2 [Ec][DB] [CA]2 [CA][EA] | [FB]<[FA] [DF]2 [CE]2 [CE][CE] | %3
w: 1.~There’s a|place in the king- dom of|Je- sus for you, Sin- ner|
w: 2.~Will you|lin- ger out- side till the|door must be closed, Tho’ the|
w: 3.~Let the|Lord from your soul break the|fet- ters of sin, And come|
 [EA]2 [EA]>[EB] [Ec]2 [A=d]>[Ad] | [Ge]6 [CE][CA] | [Ec]2 [Ec][DB] [CA]2 [EA][EB] | %6
w: friend, en- ter now while you|may; If you|fal- ter and wait, it may|
w: Sav- ior doth ten- der- ly|plead? He once|died on the cross to re-|
w: in- to the king- dom of|love; Then when|life ends be- low, thro’ e-|
 [Ec]2 [_Ge][Ge] !fermata![Fd]2 [DF][DF] | [CE]2 [CA][CA] [EG]2 [DB][Ec] | [CA]6 || %9
w: soon be too late; Come in|faith and find par- don to-|day.|
w: deem you from loss; List- en|now and His call glad- ly|heed.|
w: ter- ni- ty know All the|rap- ture of saved ones a-|bove.|
"^Refrain" [DG][CA] | [EB]2 [EB][Ec] [EB]2 [EA][EB] | [Ec]6 [Ec][Ed] | [Ae]2 [Ac][GB] A2 [FB][Ac] | %13
w: ||||
w: There’s a|place in the king- dom for|you, There’s a|place in the king- dom for|
w: ||||
 [GB]6 [CE][CA] | [Ec]2 [Ec][DB] [CA]2 [EA][EB] | [Ec]2 [_Ge][Ge] !fermata![Fd]2 [DF][DF] | %16
w: |||
w: you; In its|safe- ty find rest, and for-|ev- er be blest; There’s a|
w: |||
 [CE]2 [CA][CA] [EG]2 [DB][Ec] | [CA]6 |] %18
w: ||
w: place in the king- dom for|you.|
w: ||
V:2
 x2 | x8 | x8 | x8 | x8 | x8 | x8 | x8 | x6 || x2 | x8 | x8 | x4 A2 x2 | x8 | x8 | x8 | x8 | x6 |] %18
V:3
 [A,,A,][A,,A,] | [A,,A,]2 [A,,A,][A,,A,] [A,,A,]2 [A,,A,][C,A,] | %2
w: ~ ~|~ ~ ~ ~ ~ ~|
 A,<[D,A,] [D,A,]2 [A,,A,]2 [A,,A,][A,,A,] | [A,,C]2 [C,A,]>[E,G,] A,2 [F,B,]>[F,B,] | %4
w: ~ ~ ~ ~ ~ ~|~ ~ ~ ~ ~ ~|
 [E,B,]6 A,A, | A,2 A,[E,G,] [F,A,]2 [C,A,][E,G,] | %6
w: ~ ~ ~|~ ~ ~ ~ ~ ~|
 A,2 [C,A,][C,A,] !fermata![D,A,]2 [D,A,][D,A,] | [E,A,]2 [F,A,][F,A,] [E,B,]2 [E,G,][E,G,] | %8
w: ~ ~ ~ ~ ~ ~|~ ~ ~ ~ ~ ~|
 [A,,A,]6 || [E,B,][E,A,] | [E,G,]2 [E,G,][E,A,] [E,G,]2 [C,A,][E,G,] | A,2 A,2 A,2 A,[A,B,] | %12
w: ~|~ ~|~ ~ ~ ~ ~ ~|~ for you, * *|
 [A,C]2 [A,E][E,D] [F,C]2 [B,,=D][B,,D] | [E,E]2 [E,E]2 [E,E]2 A,A, | %14
w: ||
 A,2 A,[E,G,] [F,A,]2 [C,A,][E,G,] | A,2 [C,A,][C,A,] [D,A,]2 [D,A,][D,A,] | %16
w: ||
 [E,A,]2 [F,A,][F,A,] [E,B,]2 [E,G,][E,G,] | [A,,A,]6 |] %18
w: ||
V:4
 x2 | x8 | x8 | x4 A,2 x2 | x6 A,A, | A,2 A, x5 | A,2 x6 | x8 | x6 || x2 | x8 | A,2 A,2 A,2 A, x | %12
 x8 | x6 A,A, | A,2 A, x5 | A,2 x6 | x8 | x6 |] %18

